src/files/images/icon-twitter.svg

<?xml version="1.0" encoding="UTF-8" standalone="no"?>
<svg width="54px" height="54px" viewBox="0 0 54 54" version="1.1" xmlns="http://www.w3.org/2000/svg" xmlns:xlink="http://www.w3.org/1999/xlink" xmlns:sketch="http://www.bohemiancoding.com/sketch/ns">
    <!-- Generator: Sketch 3.1.1 (8761) - http://www.bohemiancoding.com/sketch -->
    <title>twitter</title>
    <desc>Created with Sketch.</desc>
    <defs></defs>
    <g id="Page-1" stroke="none" stroke-width="1" fill="none" fill-rule="evenodd" sketch:type="MSPage">
        <g id="Desktop" sketch:type="MSArtboardGroup" transform="translate(-292.000000, -7047.000000)" fill="#FFFFFF">
            <g id="social" sketch:type="MSLayerGroup" transform="translate(292.000000, 7047.000000)">
                <path d="M27,0 C12.087,0 0,12.0888 0,27 C0,41.913 12.087,54 27,54 C41.913,54 54,41.913 54,27 C54,12.0888 41.913,0 27,0 L27,0 Z M41.7265655,20.4737814 C41.7390121,20.7564094 41.7461244,21.0390374 41.7461244,21.3252205 C41.7461244,29.9960347 35.140579,40 23.0638995,40 C19.3548369,40 15.9071512,38.9139263 13,37.0492924 C13.5156415,37.1115061 14.0366172,37.1435017 14.5647052,37.1435017 C17.6407735,37.1435017 20.4732455,36.0929787 22.7207312,34.3332194 C19.8473634,34.2798933 17.4238484,32.3814863 16.5863755,29.777398 C16.9864422,29.8520544 17.3989554,29.8947153 17.822137,29.8947153 C18.421348,29.8947153 19.0027782,29.8129487 19.5522031,29.6618582 C16.549036,29.0592739 14.2855476,26.4071922 14.2855476,23.2271826 L14.2855476,23.145416 C15.1710285,23.6360156 16.1845308,23.9310863 17.2602656,23.966637 C15.4964161,22.786354 14.3388898,20.7777398 14.3388898,18.5024954 C14.3388898,17.2973269 14.6624993,16.1703699 15.2279269,15.203391 C18.4657999,19.172626 23.3057176,21.7873795 28.760849,22.0611198 C28.6488304,21.5794079 28.5901539,21.0781432 28.5901539,20.5608806 C28.5901539,16.9400424 31.5275324,14 35.1548036,14 C37.0431183,14 38.7482914,14.7963355 39.9467133,16.0726055 C41.4420737,15.7775347 42.8467522,15.2318315 44.1162972,14.4799344 C43.6273268,16.0121693 42.5871534,17.2973269 41.2287048,18.1096602 C42.5569262,17.9532372 43.8229149,17.5995078 45,17.0769126 C44.1216314,18.3940658 43.0103351,19.5512409 41.7265655,20.4737814 L41.7265655,20.4737814 Z" id="twitter" sketch:type="MSShapeGroup"></path>
            </g>
        </g>
    </g>
</svg>

<svg width="54" height="54" viewBox="0 0 54 54" xmlns="http://www.w3.org/2000/svg" xmlns:sketch="http://www.bohemiancoding.com/sketch/ns"><title>twitter</title><desc>Created with Sketch.</desc><path d="M27 0c-14.913 0-27 12.089-27 27 0 14.913 12.087 27 27 27s27-12.087 27-27c0-14.911-12.087-27-27-27zm14.727 20.474c.012.283.02.565.02.851 0 8.671-6.606 18.675-18.682 18.675-3.709 0-7.157-1.086-10.064-2.951.516.062 1.037.094 1.565.094 3.076 0 5.909-1.051 8.156-2.81-2.873-.053-5.297-1.952-6.134-4.556.4.075.813.117 1.236.117.599 0 1.181-.082 1.73-.233-3.003-.603-5.267-3.255-5.267-6.435v-.082c.885.491 1.899.786 2.975.821-1.764-1.18-2.921-3.189-2.921-5.464 0-1.205.324-2.332.889-3.299 3.238 3.969 8.078 6.584 13.533 6.858-.112-.482-.171-.983-.171-1.5 0-3.621 2.937-6.561 6.565-6.561 1.888 0 3.593.796 4.792 2.073 1.495-.295 2.9-.841 4.17-1.593-.489 1.532-1.529 2.817-2.888 3.63 1.328-.156 2.594-.51 3.771-1.033-.878 1.317-1.99 2.474-3.273 3.397z" sketch:type="MSShapeGroup" fill="#fff"/></svg>
